X:1
T:1. À la croisée des lieux communs
N:from lieuxc_musique1.mid
Z:Eric Forgeot - http://anamnese.online.fr
M:4/4
L:1/8
Q:1/4=120
K:C 
%%staves (1 2 5) (3 4)
V:1
%%MIDI program 16  % General MIDI organ
K:C treble 
E4 F2 ^D2 | G4 A2 ^F2 | =F4 E4 | B4 E4 |
E4 F2 ^D2 | G4 A2 ^F2 | =F4 E4 | B4 E4 |
E6 ^D2 | G4 A2 =D,2 | F4 E4 | B4 E4 :|
|: E4 F2 E,2 | A,4 A2 G,2 | F4 E4 | B4 E4|
E4 F2 E,2 | c4 A2 B2 | F4 E4 | B4 c4 :|]
V:2
K:C treble 
%%MIDI program 16
x8 | x8 | x8 | x8 |
x8 | x8 | x8 | x8 |
x8 | x8 | x8 | x8 :|
|: A8 | F,6 G2 | BA G2 A4- | A4 A2 BE |
A8 | F,6 G2 | BA G2 A4- | A4 A2 BG :|
V:3
K:C bass
%%MIDI program 16     % General MIDI organ
E,8 | E,4 D,2 F,2 | D,4 E,4 | C,4 E,4 |
E,8 | E,4 D,2 F,2 | D,4 E,4 | C,4 E,4 |
E,8 | E,4 D,2 F,2 | D,4 E,4 | C,2 D,2 E,4 :|
|: E,8 | E,4 D,2 F,2 | D,4 E,4 | C,4 E,4|
E,8 | E,4 D,2 F,2 | D,4 E,4 | C,4 C,4 :|]
V:4
%K:C treble
%%MIDI program 16
E,8- | E,8- | E,8- | E,4 x4 |
E,8- | E,8- | E,8- | E,4 x4 |
E,4 B,4 | E,4 G,2 G,2 | E,4 C,2 ^D,2- | ^D,4 x4 :|
|: A,8- | A,8 | G,4 A,4- | A,4 x4 |
A,8- | A,2 F,F, F,4- | F,4 E,E, C,2 | D,4 x4 :|]
V:5
%K:C treble
%%MIDI program 16
x8 | x8 | x8 | x4 e2 de |
x8 | x8 | x8 | x4 e2 de |
x8 | x8 | x8 | x4 e2 =dc :|
|: x8 | x8 | x8 | x4 e2 ec |
x8 | x8 | x8 | x4 e2 ec :|]


